!!!!SEGMENT: Wil2017-Omnipotens_sempiterne_Deus.krn
!!!id: Wil2017
!!!AGN: Motet
!!!SCT: Smijers (1936)
!!!voices: 4
!!!COM: Adrian Willaert
!!!OTL: Omnipotens sempiterne Deus
**kern	**kern	**kern	**kern
*part4	*part3	*part2	*part1
*staff4	*staff3	*staff2	*staff1
*I"Bassus	*I"Tenor	*I"Altus	*I"Superius
*I'B	*I'T	*I'A	*I'S
*clefF4	*clefGv2	*clefGv2	*clefG2
*k[]	*k[]	*k[]	*k[]
*C:	*C:	*C:	*C:
*M2/1	*M2/1	*M2/1	*M2/1
*met(C|)	*met(C|)	*met(C|)	*met(C|)
!!section: Prima pars: Omnipotens sempiterne Deus
!!!OMD: Prima pars: Omnipotens sempiterne Deus
=1	=1	=1	=1
0r	0G	0g	0r
=2	=2	=2	=2
0r	1A	1e	0r
.	1A	1e	.
=3	=3	=3	=3
0G	[0B	0d	0r
=4	=4	=4	=4
1E	0B]	1e	0g
1E	.	[1g	.
=5	=5	=5	=5
0D	1r	2g]	1a
.	.	4f	.
.	.	4e	.
.	[1d	1f	1a
=6	=6	=6	=6
1.G	2d]	1.g	1b
.	2d	.	.
.	1d	.	[1b
2G	.	[2d	.
=7	=7	=7	=7
1G	0G	2d]	2b]
.	.	2d	2b
1C	.	1e	[1cc
=8	=8	=8	=8
0F	0A	1c	2cc]
.	.	.	2b
.	.	1d	1a
=9	=9	=9	=9
1E	1B	1e	0g
2.C	[1c	2r	.
.	.	[2e	.
4D	.	.	.
=10	=10	=10	=10
4E	2c]	2e]	2r
4F	.	.	.
1G	2B	2d	2g
.	1A	2e	1a
2F#i	.	[2d	.
=11	=11	=11	=11
1.G	2.G	4d]	1.b
.	.	4c	.
.	.	4B	.
.	4A	4A	.
.	2B	1G	.
4F	[2c	.	2g
4E	.	.	.
=12	=12	=12	=12
2D	4c]	1r	1dd
.	4A	.	.
2E	2B	.	.
1C	2G	2r	2.cc
.	[2g	2c	.
.	.	.	4b
=13	=13	=13	=13
0r	2g]	1d	1a
.	2f	.	.
.	2g	[1e	1g
.	[2c	.	.
=14	=14	=14	=14
0r	2c]	2e]	2r
.	4B	2c	1cc
.	4A	.	.
.	1e	1g	.
.	.	.	[2b
=15	=15	=15	=15
2r	2.d	1f	4b]
.	.	.	4a
2D	.	.	1a
.	4c	.	.
1E	1B	2.e	.
.	.	.	2g
.	.	4d	.
=16	=16	=16	=16
1.F	0A	1c	2.a
.	.	.	4b
.	.	2r	2cc
2D	.	[2f	[2dd
=17	=17	=17	=17
1A	0r	2f]	2dd]
.	.	2.e	2cc
2G	.	.	2b
.	.	4d	.
2F	.	[2d	[2a
=18	=18	=18	=18
1E	2r	2d]	4a]
.	.	.	4g
.	2G	2c	1g
1D	1A	[1d	.
.	.	.	2f#i
=19	=19	=19	=19
1G	1.B	1d]	1g
2G	.	2.d	1r
[2B	2G	.	.
.	.	4e	.
=20	=20	=20	=20
2B]	1d	2f	0r
4A	.	2g	.
4G	.	.	.
2.A	2.c	2f	.
.	.	[2e	.
4G	4B	.	.
=21	=21	=21	=21
2F	1A	4e]	0r
.	.	4d	.
4E	.	1d	.
4D	.	.	.
2.E	1G	.	.
.	.	2c	.
4F	.	.	.
=22	=22	=22	=22
2G	2r	2B	0r
1A	1c	4A	.
.	.	4B	.
.	.	4c	.
.	.	4d	.
2G	[2B	[2e	.
=23	=23	=23	=23
2F	4B]	4e]	0r
.	4A	4d	.
2D	1A	1d	.
2E	.	.	.
2E	2G	2c#i	.
=24	=24	=24	=24
1D	2.A	1d	0r
.	4B	.	.
2r	2c	1A	.
[2D	[2d	.	.
=25	=25	=25	=25
4D]	2d]	2.f	0r
4E	.	.	.
2F	2c	.	.
.	.	4e	.
2G	2B	4d	.
.	.	4c	.
2F	[2A	2d	.
=26	=26	=26	=26
1E	4A]	4c	1r
.	4G	4B	.
.	1G	4A	.
.	.	4G	.
1D	.	1A	2r
.	2F#i	.	[2dd
=27	=27	=27	=27
2.E	2.G	2r	2dd]
.	.	2e	2cc
4F	4A	.	.
2G	4B	2d	2b
.	4c	.	.
2D	2d	[2f	[2a
=28	=28	=28	=28
2F	4c	4f]	4a]
.	4B	4e	4g
2E	4A	2c	1g
.	4G	.	.
1D	1A	[1d	.
.	.	.	2f#i
=29	=29	=29	=29
2r	0G	2d]	0g
1d	.	2B	.
.	.	1d	.
2B	.	.	.
=30	=30	=30	=30
2.c	2r	1e	1g
.	1g	.	.
4B	.	.	.
1A	.	1c	1a
.	2f	.	.
=31	=31	=31	=31
2.G	2e	2r	1b
.	2.d	2d	.
4F	.	.	.
2E	.	2e	1g
.	4c	.	.
4D	[2c	2e	.
4C	.	.	.
=32	=32	=32	=32
1D	2c]	2.f	1r
.	2B	.	.
.	.	8eL	.
.	.	8dJ	.
1C	2c	2e	1g
.	2e	[2g	.
=33	=33	=33	=33
1r	0d	2g]	1a
.	.	2f#i	.
2.G	.	2g	1b
.	.	[2d	.
4A	.	.	.
=34	=34	=34	=34
2B	0r	2d]	1g
2c	.	1e	.
2A	.	.	2r
2F	.	2f	2a
=35	=35	=35	=35
1G	0r	2d	2b
.	.	2.e	2b
1A	.	.	2.cc
.	.	4d	.
.	.	4e	.
.	.	4f	8bL
.	.	.	8aJ
=36	=36	=36	=36
1E	1r	2g	2b
.	.	4f	1cc
.	.	4e	.
1r	2r	1d	.
.	[2G	.	2b
=37	=37	=37	=37
1C	2G]	1e	1cc
.	1A	.	.
1D	.	1d	1r
.	[2B	.	.
=38	=38	=38	=38
1E	2B]	1G	0r
.	1G	.	.
1C	.	1r	.
.	2A	.	.
=39	=39	=39	=39
2r	2B	0r	0r
2G	2B	.	.
2E	2.c	.	.
2F	.	.	.
.	8BL	.	.
.	8AJ	.	.
=40	=40	=40	=40
2G	2B	0r	2r
4F	1c	.	2c
4E	.	.	.
2F	.	.	2d
2G	2B	.	2d
=41	=41	=41	=41
2.C	1.c	2r	2.e
.	.	2g	.
4D	.	.	4f
2E	.	2e	2g
2F	[2A	2c	2a
=42	=42	=42	=42
2D	2A]	1d	2f
2G	1B	.	2g
2E	.	1e	2g
2C	2c	.	4f
.	.	.	4e
=43	=43	=43	=43
1D	2A	1d	2f
.	2.B	.	2f
1E	.	1G	4e
.	4A	.	4f
.	4B	.	4g
.	4c	.	4e
=44	=44	=44	=44
0D	2d	2r	2f
.	4c	2d	1g
.	4B	.	.
.	1A	2d	.
.	.	2d	2f#i
=45	=45	=45	=45
1G	1B	2e	1g
.	.	1d	.
[1F	[1A	.	2r
.	.	4c	2a
.	.	4B	.
=46	=46	=46	=46
2F]	1A]	2c	2a
2D	.	2.d	2a
2G	1r	.	2b
.	.	4e	.
2F	.	[2f	[2a
=47	=47	=47	=47
2D	0r	2f]	2a]
2A	.	4e	4g
.	.	4d	4f
2A	.	4c	2e
.	.	4d	.
2A	.	4e	2a
.	.	4f	.
=48	=48	=48	=48
2B	0r	2d	2g
1A	.	2e	1cc
.	.	2.A	.
4G	.	.	4b
4F	.	4B	4a
=49	=49	=49	=49
2.E	2r	2c	2.g
.	2e	2.B	.
4F	.	.	4a
2G	2e	.	2b
.	.	4G	.
2A	2e	[2c	[2a
=50	=50	=50	=50
2F	2f	2c]	2a]
2G	1e	2B	1g
1A	.	1c	.
.	4d	.	2f#i
.	4c	.	.
=51	=51	=51	=51
2.G	1B	2r	1g
.	.	2d	.
4F	.	.	.
2E	2r	2c	1r
2D	2d	[2f	.
=52	=52	=52	=52
2.F	2c	2f]	0r
.	1f	4e	.
4G	.	4d	.
4A	.	2.c	.
4B	.	.	.
[2c	4e	.	.
.	4d	4d	.
=53	=53	=53	=53
2c]	2c	2e	1.g
2B	2d	2.d	.
2c	2e	.	.
.	.	4c	.
2F	2f	[2c	2a
=54	=54	=54	=54
1G	2.d	2c]	2b
.	.	2B	2g
.	4e	.	.
[1F	1f	1c	2a
.	.	.	[2cc
=55	=55	=55	=55
2F]	1c	2r	4cc]
.	.	.	4b
2E	.	1c	2g
1F	1r	.	1a
.	.	2d	.
=56	=56	=56	=56
1C	1r	2e	2.g
.	.	2c	.
.	.	.	4a
1r	2r	2d	2b
.	[2d	[2f	[2a
=57	=57	=57	=57
0r	2d]	4f]	4a]
.	.	4e	4g
.	2e	2c	1cc
.	2f	1d	.
.	2d	.	2b
=58	=58	=58	=58
1r	2e	2c	1cc
.	2.g	2.e	.
[1G	.	.	1r
.	4f	4d	.
.	2d	[2d	.
=59	=59	=59	=59
2G]	1e	2d]	0r
2A	.	2c#i	.
2B	2.d	1d	.
2G	.	.	.
.	4e	.	.
=60	=60	=60	=60
2A	2f	0r	2r
2.c	2.e	.	1g
4B	4d	.	.
2G	[2g	.	2b
=61	=61	=61	=61
1A	2g]	1c	2cc
.	2f#i	.	2a
1G	1g	2e	1b
.	.	[2d	.
=62	=62	=62	=62
1F	2r	4d]	1a
.	.	4c	.
.	1c	1f	.
1C	.	.	2.g
.	2e	2e	.
.	.	.	4a
=63	=63	=63	=63
2.D	2d	2.f	2b
.	2.f	.	2.a
4E	.	4e	.
2F	.	2c	.
.	4c	.	4g
2C	2e	[2g	[2cc
=64	=64	=64	=64
1G	2.d	2g]	2cc]
.	.	2g	2b
.	4e	.	.
2.A	2f	2.c	1a
.	[2e	.	.
4B	.	4d	.
=65	=65	=65	=65
2c	4e]	2e	1g
.	4d	.	.
2B	1g	2d	.
1A	.	2e	[1cc
.	2f#i	2c	.
=66	=66	=66	=66
0G	1g	1d	2cc]
.	.	.	4b
.	.	.	4a
.	1r	[1d	2b
.	.	.	4g
.	.	.	4a
=67	=67	=67	=67
0r	1.G	2d]	4b
.	.	.	4cc
.	.	2d	1dd
.	.	1e	.
.	2A	.	2cc#i
=68	=68	=68	=68
1G	2.B	2.d	1dd
.	4c	4e	.
2F	2d	2f	1r
[2E	2G	[2g	.
=69	=69	=69	=69
2E]	2B	2g]	0r
4D	2c	4f	.
4C	.	4e	.
2D	2A	2f	.
2C	[2e	[2g	.
=70	=70	=70	=70
2.E	4e]	4g]	1r
.	4d	4f	.
.	1c	1e	.
4F	.	.	.
1G	.	.	[1g
.	2B	2d	.
=71	=71	=71	=71
1C	2.c	1e	2g]
.	.	.	2g
.	4B	.	.
2r	4c	1A	1a
.	4d	.	.
[2c	[2e	.	.
=72	=72	=72	=72
2c]	2e]	0r	2.g
4B	4d	.	.
4A	4c	.	4a
2G	2d	.	2b
[2A	2c	.	[2cc
=73	=73	=73	=73
2A]	2A	0r	2cc]
4G	2.e	.	4b
4F	.	.	4a
2G	.	.	2b
.	4d	.	.
2A	4c	.	[2cc
.	4B	.	.
=74	=74	=74	=74
1F	1A	1r	4cc]
.	.	.	4b
.	.	.	1a
1E	1B	1e	.
.	.	.	2g#i
=75	=75	=75	=75
1A	1A	2e	[0a
.	.	2e	.
1D	2r	1d	.
.	[2f	.	.
=76	=76	=76	=76
1.A	2f]	2.c	0a]
.	2e	.	.
.	.	4d	.
.	2c	2e	.
2D	[2d	[2f	.
=77	=77	=77	=77
1A	2d]	2f]	1r
.	4c	4e	.
.	4B	4d	.
2A	2c	2e	1a
2D	[2d	(2f	.
=78	=78	=78	=78
1F	2d]	4f)	2a
.	.	4e	.
.	2A	1d	2a
1E	2B	.	1g
.	2G	2c#i	.
=79	=79	=79	=79
2.D	1A	0d	2.f
4E	.	.	4g
2F	1r	.	2a
[2G	.	.	[2b-i
=80	=80	=80	=80
2G]	1G	2.d	2b-]
4F	.	.	4a
4E	.	4e	4g
2D	2.d	2f	2a
[2G	.	[2g	[2b-i
.	4c	.	.
=81	=81	=81	=81
2G]	2B	4g]	4b-]
.	.	4f	4a
2C	2c	2e	1g
1D	1A	1d	.
.	.	.	2f#i
=82	=82	=82	=82
1G	1B	1d	1g
1r	1r	1r	1r
=	=	=	=
*M3/1	*M3/1	*M3/1	*M3/1
*met(3)	*met(3)	*met(3)	*met(3)
0D	0d	0f	0a
1F	1c	1f	1a
=83	=83	=83	=83
1F	1A	1c	1a
0C	1.c	0e	0g
.	2B	.	.
=84	=84	=84	=84
1.D	1A	0d	1.f
.	1B	.	.
2E	.	.	2g
1F	1A	[1d	1a
=85	=85	=85	=85
1G	1.d	1d]	0b-i
0E	.	1.g	.
.	2c	.	.
.	2c	.	2a
.	2B	4f	2g
.	.	4e	.
=86	=86	=86	=86
1D	1.d	1f	1a
0G	.	1g	1.b
.	2c	.	.
.	1B	1d	.
.	.	.	2a
=87	=87	=87	=87
1C	1c	1e	1.g
0D	0A	0d	.
.	.	.	4f#i
.	.	.	4e
.	.	.	1f#i
=	=	=	=
*M2/1	*M2/1	*M2/1	*M2/1
*met(C|)	*met(C|)	*met(C|)	*met(C|)
1G	2r	1d	[0g
.	2B	.	.
1r	2c	2r	.
.	2d	[2B	.
=88	=88	=88	=88
1E	4e	2B]	1g]
.	4d	.	.
.	4c	2c	.
.	4B	.	.
2F	2A	2d	1r
2G	2B	[2e	.
=89	=89	=89	=89
2A	2c	2e]	1r
2B	2d	2d	.
1A	1e	4c	2r
.	.	4B	.
.	.	4c	[2e
.	.	4d	.
=90	=90	=90	=90
1r	2c	2e	2e]
.	2d	1d	2f
2r	1e	.	2g
2A	.	2c#i	[2a
=91	=91	=91	=91
2F	2A	1.d	2a]
2G	2B	.	2g
1D	2A	.	4f
.	.	.	4e
.	[2d	2B	4f
.	.	.	4g
=92	=92	=92	=92
2F	4d]	2A	2a
.	4c	.	.
2G	2B	2.d	1g
1D	1A	.	.
.	.	4c	.
.	.	2A	2f#i
=93	=93	=93	=93
[0Gl	[0Gl	2B	[0gl
.	.	2G	.
.	.	[1dl	.
=94	=94	=94	=94
00G]	00G]	00d]	00g]
==	==	==	==
*-	*-	*-	*-
!!!system-decoration: [*]
!!!RDF**kern: i = editorial accidental
!!!RDF**kern: l = terminal long
!!!ENC: Benjamin Ory
!!!END: 2022/2/12
!!!EED: Benjamin Ory
!!!EEV: 2022/02/06
!!!YEC: Copyright 2022 Benjamin Ory, All Rights Reserved
!!!ONB: Translated from MusicXML on 2022/02/06
